X: 20351
T: GEORGE'S WALTZ
C:
%R: waltz
B: Elias Howe "The Musician's Companion" 1843 p.35 #1
S: http://imslp.org/wiki/The_Musician's_Companionk(Howe,_Elias)
Z: 2015 John Chambers <jc:trillian.mit.edu>
M: 3/8
L: 1/8
K: F
% - - - - - - - - - - - - - - - - - - - - - - - - -
c |\
(A/B/)cc | (d/e/)ff | (G/A/)BB | {B}A2(f/g/) |\
(a/g/)(f/e/)(d/c/) | fac' | cde | f2 ::\
b |\
(c'/b/)gg | (g/e/)cc | (c'/a/)ff | fac' | c'/b/gg |
(g/e/)cc | (f/d/)(f/a/)(g/e/) | "^Fine"f2 :: c |\
(cA)c | (fe)f | (d^c)d | B2G |\
ABc | cBA | GGG | G2c |\
(cA)c | (fe)f | (d^c)d | B2G |\
ABc | BAG | FFF | "^D.C."F2 :|
% - - - - - - - - - - - - - - - - - - - - - - - - -

%%sep 1 1 500

